X:1
T:O’er the Hill and O’er the Vale
T: F. J. Dugard, before 1917
T:O’er the Hill and O’er the Vale
T:Public Domain
T:Public Domain
C:F. J. Dugard, before 1917
Z:Public Domain
%%score ( 1 2 ) ( 3 4 )
L:1/8
M:4/4
K:G
V:1 treble 
V:2 treble 
V:3 bass 
V:4 bass 
V:1
"^Joyfully" [B,D]2 [B,G]2 [DB]2 [DB]2 | [Dc]2 [FA]2 G4 | [FB]2 [FA]2 [DG]2 [DF]2 | [DA]4 [DG]4 | %4
w: 1.~O’er the hill and|o’er the vale|three kings to- ge-|ther, Car-|
w: 2.~O’er the hill and|o’er the vale|king bears a pre-|sent: Wise|
w: 3.~He is God ye|go to meet;|fore in- cense prof-|fer. He|
 [Dd]2 [Dd]2 [Dd]2 [DB]2 | [Dd]2 [^Dc]2 [EB]4 | [Ec]2 [EA]2 [DG]2 [DF]2 | (E2 F2) G4 | %8
w: ing nought for snow|and hail, Cold,|and wind, and wea-|ther; * Now|
w: men go a Child|to hail, Mon-|archs seek a pea-|sant; * And|
w: is King ye go|to greet: Gold|is in your cof-|fer. * Al-|
 B2 B2 B2 G2 | F2 E2 B4 | B2 B2 B2 [EG]2 | [^DF]3 E E4 | [B,D]2 [CE]2 [DF]2 [EG]2 | [FB]4 [FA]4 | %14
w: sia’s sand- y plains,|swells with rains,|els te- ther; Now|lands they go,|Mo- ab, faint and|slow, Now|
w: in front pro- ceeds,|vers leads, Shines|cess- ant. There- fore|ward still! Ford|and climb the hills:|Love makes|
w: He comes to share|man can bear:|er, scof- fer; There-|gainst the day,|grave where Him they|lay, Myrrh|
 [Gd]2 [Dd]2 [Dd]2 [DB]2 | [Dd]2 [Dc]2 [DB]4 | [Dd]2 [Dd]2 [Dd]2 [DB]2 | [Dd]2 [^Dc]2 [EB]4 | %18
w: through E- dom’s hea-|ther. * *|||
w: all things plea- sant.||||
w: ye al- so of-|fer. * *|||
 [Ec]2 [EA]2 [DG]2 [DF]2 | (E2 F2) G4 |] %20
w: ||
w: ||
w: ||
V:2
 x8 | x4 G4 | x8 | x8 | x8 | x8 | x8 | A4 G4 | B2 B2 B2 G2 | F2 E2 B4 | B2 B2 B2 x2 | x3 E E4 | %12
w: |Come||||||on Per-|Now where Ti- gris|They their cam-|through Syr- ian|Now through|
w: |Each||||||a star|Over rocks and ri-|with beams in-|on- ward, on-|the stream|
w: |There-||||||so Man|Ev- ery woe that|Temp- ter, rail-|fore now a-|In the|
 x8 | x8 | x8 | x8 | x8 | x8 | x8 | A4 G4 |] %20
w: ||||||||
w: ||||||||
w: ||||||||
V:3
 G,2 [D,G,]2 [B,,G,]2 [G,,G,]2 | [D,F,]2 [D,C]2 [G,B,]4 | [D,D]2 [D,C]2 [D,B,]2 [D,C]2 | %3
 (F,2 D,2) [G,,B,]4 | [G,,B,]2 [B,,B,]2 [D,B,]2 G,2 | [F,A,]2 [F,A,]2 [E,G,]4 | %6
 [A,,A,]2 [C,A,]2 [D,B,]2 [D,A,]2 | (C,2 D,2) [G,B,]4 | B,2 B,2 B,2 G,2 | F,2 E,2 B,4 | %10
 B,2 B,2 B,2 [B,,B,]2 | [B,,A,]3 [E,G,] [E,G,]4 | G,2 G,2 [F,A,]2 [E,B,]2 | [D,C]4 [D,C]4 | %14
 [G,,B,]2 [B,,B,]2 [D,B,]2 G,2 | [F,A,]2 [F,A,]2 G,4 | [G,,B,]2 [B,,B,]2 [D,B,]2 G,2 | %17
 [F,A,]2 [F,A,]2 [E,G,]4 | [A,,A,]2 [C,A,]2 [D,B,]2 [D,A,]2 | (C,2 D,2) [G,,B,]4 |] %20
V:4
 G,2 x6 | x8 | x8 | C4 x4 | x6 G,2 | x8 | x8 | C4 x4 | B,2 B,2 B,2 G,2 | F,2 E,2 B,4 | %10
 B,2 B,2 B,2 x2 | x8 | G,2 G,2 x4 | x8 | x6 G,2 | x4 G,4 | x6 G,2 | x8 | x8 | C4 x4 |] %20

